!!!COM: Mozart
!!!OTL: 12 Variations on "Ah Vous dirais-je, Maman" for the Piano,
!!!Variation: 8 b
**kern	**kern
*M2/4	*M2/4
=-	=-
*	*^
[2GG [2G	8r	2g
.	(8gg	.
.	8aa-L	.
.	8ggJ)	.
=	=	=
2GG] 2G]	(4ff#	(4a
.	4ff)	4b)
=	=	=
[2G	4ee	8ccL
.	.	(8gJ
.	[4ee-	8a-L
.	.	8gJ)
=	=	=
*^	*	*
*	*	*	*
2G]	4A	4ee-]	(4f#
.	4B	[4dd	4f)
*v	*v	*	*
*	*	*
=	=	=
8cL	4dd]	4e
8GGJ 8G	.	.
8AA-L 8A-	[4cc	[4e-
8GGJ 8G	.	.
=	=	=
4FF# 4F#	4a 4cc]	4e-]
4FF 4F	4b	4a-
=	=	=
4EE 4E	8cc'L	2g
.	8dd'J	.
4EE- 4E-	8ee-'L	.
.	8ff'J	.
=	=	=
4DD 4D	(8ggL	2g
.	8ffJ)	.
4GGG 4GG	8ee-'L	.
.	8dd'J	.
*	*	*
*	*v	*v
=	=
*-	*-
